svg/double_right.svg

<svg xmlns="http://www.w3.org/2000/svg" viewBox="0 0 32 32" enable-background="new 0 0 32 32"><path d="M 9.09375 4.78125 L 7.6875 6.21875 L 17.46875 16 L 7.6875 25.78125 L 9.09375 27.21875 L 19.59375 16.71875 L 20.3125 16 L 19.59375 15.28125 L 9.09375 4.78125 z M 16.09375 4.78125 L 14.6875 6.21875 L 24.46875 16 L 14.6875 25.78125 L 16.09375 27.21875 L 26.59375 16.71875 L 27.3125 16 L 26.59375 15.28125 L 16.09375 4.78125 z" color="#000" overflow="visible" enable-background="accumulate"/></svg>

<svg xmlns="http://www.w3.org/2000/svg" viewBox="0 0 32 32"><path d="M9.094 4.78L7.688 6.22l9.78 9.78-9.78 9.78 1.406 1.44 10.5-10.5.718-.72-.718-.72-10.5-10.5zm7 0l-1.407 1.44L24.47 16l-9.782 9.78 1.406 1.44 10.5-10.5.718-.72-.718-.72-10.5-10.5z"/></svg>
